X:1
T:SPRING
T:SPRING 
T:From The Four Seasons
T:António Vivaldi (1678-1741)
C:António Vivaldi
%%score { 1 | 2 }
L:1/8
Q:1/4=150
M:4/4
K:D
V:1 treble nm="Piano" snm="Pno."
V:2 bass 
V:1
!f! z4 z2 D2 | F2 F2 F2 ED | A6 AG | F2 F2 F2 ED | A6 AG | F2 GA G2 F2 | E6!mp! D2 | F2 F2 F2 ED | %8
 A6 AG | F2 F2 F2 ED | A6 AG | F2 GA G2 F2 | E4 z2!f! F2 | A2 GF G2 A2 | .B2 A4 D2 | A2 GF G2 A2 | %16
 .B2 A4 D2 | .B2 A4 G2 |!>(! F2 ED !trill(!TE3 !trill)!D!>)! |!mp! D8 ||!f! z4 z2 D2 | %21
 [F,D]2 [F,D]2 [F,D]2 A,2 | [DF]6 FE | [F,D]2 [F,D]2 [F,D]2 A,2 | [DF]6 FE | D2 EF [B,E]2 [B,D]2 | %26
 [CE]4 A,2!mp! D2 | [F,D]2 [F,D]2 [F,D]2 A,2 | [DF]6 FE | [F,D]2 [F,D]2 [F,D]2 A,2 | [DF]6 FE | %31
 D2 EF [B,E]2 [B,D]2 | [CE]4 A,2!f! D2 | [A,F]2 ED [G,E]2 [A,F]2 | .[B,G]2 [A,F]4 [F,D]2 | %35
 [A,F]2 ED [G,E]2 [A,F]2 | .[B,G]2 [A,F]4 D2 | .[B,G]2 [A,F]4 [B,G]2 |!>(! [A,F]2 D2 [CE]3 D!>)! | %39
!mp! [F,A,D]8 |] %40
V:2
!ped! z8!ped-up! |!ped! D,2 F,2 A,2 z2!ped-up! |!ped! A,,2 E,2 A,2 z2!ped-up! | %3
!ped! D,2 F,2 A,2 z2!ped-up! |!ped! A,,2 E,2 A,2 z2!ped-up! | %5
!ped! [D,F,A,]4 [E,G,B,]2 [E,^G,B,]2!ped-up! |!ped! A,,2 E,2 A,2 z2!ped-up! | %7
!ped! D,2 F,2 A,2 z2!ped-up! |!ped! A,,2 E,2 A,2 z2!ped-up! |!ped! D,2 F,2 A,2 z2!ped-up! | %10
!ped! A,,2 E,2 A,2 z2!ped-up! |!ped! [D,F,A,]4 [E,G,B,]2 [E,^G,B,]2!ped-up! | %12
!ped! A,,2 E,2 A,2 z2!ped-up! |!ped! [D,F,A,]8!ped-up! | .[D,G,B,]2!ped! [D,F,A,]4 z2!ped-up! | %15
!ped! [D,F,A,]8!ped-up! | .[D,G,B,]2!ped! [D,F,A,]4 z2!ped-up! | %17
 .[D,G,B,]2!ped! [D,F,A,]4 z2!ped-up! |!ped! [D,F,A,]4 [A,,E,A,]4!ped-up! | %19
!ped! [D,F,A,]8!ped-up! ||!ped! z4 z2 D,,2!ped-up! |!ped! D,,2 D,,2 D,,2 D,,2!ped-up! | %22
!ped! D,,2 D,,2 D,,2 D,,2!ped-up! |!ped! D,,2 D,,2 D,,2 D,,2!ped-up! | %24
!ped! D,,2 D,,2 D,,2 D,,2!ped-up! |!ped! D,,4 G,,2 ^G,,2!ped-up! |!ped! A,,6 z2!ped-up! | %27
!ped! D,,2 D,,2 D,,2 D,,2!ped-up! |!ped! D,,2 D,,2 D,,2 D,,2!ped-up! | %29
!ped! D,,2 D,,2 D,,2 D,,2!ped-up! |!ped! D,,2 D,,2 D,,2 D,,2!ped-up! | %31
!ped! D,,4 G,,2 ^G,,2!ped-up! |!ped! A,,6 z2!ped-up! | %33
!ped! [D,,D,]2 [D,,D,]2 [D,,D,]2 [D,,D,]2!ped-up! | %34
!ped! [D,,D,]2 [D,,D,]2 [D,,D,]2 [D,,D,]2!ped-up! | %35
!ped! [D,,D,]2 [D,,D,]2 [D,,D,]2 [D,,D,]2!ped-up! | %36
!ped! [D,,D,]2 [D,,D,]2 [D,,D,]2 [D,,D,]2!ped-up! | %37
!ped! [D,,D,]2 [D,,D,]2 [D,,D,]2 [D,,D,]2!ped-up! | %38
!ped! [D,,D,]2 [D,,D,]2 [D,,D,]2 [D,,D,]2!ped-up! |!ped! [D,,D,]8!ped-up! |] %40

